X:186
T:»Vävä vammel.»
N:Allmän över hela Sverige, varför någon beskrivning över
N:lekens utförande ej här torde behövas.
S:Upptecknad efter »Florsen» i Burs.
M:3/4
L:1/8
K:A
B2 (EF) G E|F2 F2 z2|B2 (EF) G E|
w:Så vä--va di vam-mel, så sla_ di ti-
A2 A2 z2|E E d2 d2|c B c2 c2|(AG) F2 (GA)|
w:sam-men. Vä-vä vam-mel, sla ti-sam-men, lätt_ skytt-len_
B2 A2 z2|E E (de) d2|c B (cd) c2|(AG) F2 (GA)|B2 A2 z2|]
w:gå fourt! Vä-vä vam--mel, sla ti-sam--men, lätt_ skytt-len_ ga fourt!
